X:598
T:Miss Welsh
R:Reel
B:The Athole Collection
M:C|
L:1/8
K:F
d|cAAF f2fd|cAAf cAAf|cAAF f2fd|cAAF G3:|
g|f>gag f2 fd|cAAf cAAc|f>gag f2 fd|cAAF G3g|
f>gaf f2fd|cAAf cAAc|f>gaf gefd|cAAF G3||

